assets/bloomberg.svg

<?xml version="1.0" encoding="UTF-8" standalone="no"?>
<svg width="222px" height="45px" viewBox="0 0 222 45" version="1.1" xmlns="http://www.w3.org/2000/svg" xmlns:xlink="http://www.w3.org/1999/xlink" xmlns:sketch="http://www.bohemiancoding.com/sketch/ns">
    <!-- Generator: Sketch 3.3.3 (12072) - http://www.bohemiancoding.com/sketch -->
    <title>Imported Layers</title>
    <desc>Created with Sketch.</desc>
    <defs></defs>
    <g id="Page-1" stroke="none" stroke-width="1" fill="none" fill-rule="evenodd" sketch:type="MSPage">
        <g id="Home---Desktop-Copy-2" sketch:type="MSArtboardGroup" transform="translate(-692.000000, -1907.000000)" fill="#B1B1B1">
            <g id="Group-+-Currently-in-use-at" sketch:type="MSLayerGroup" transform="translate(131.000000, 1814.000000)">
                <g id="Group" sketch:type="MSShapeGroup">
                    <g transform="translate(25.000000, 0.000000)" id="Row-3-+-Row-1-+-Row-2">
                        <g transform="translate(0.000000, 93.000000)">
                            <g id="Row-1" transform="translate(15.000000, 0.000000)">
                                <g id="Imported-Layers" transform="translate(521.000000, 0.000000)">
                                    <path d="M0.235207595,0.86934375 C2.85115443,0.86934375 5.39178987,0.85190625 7.9321443,0.87440625 C10.1782785,0.894375 12.4336861,0.8443125 14.6680177,1.0310625 C17.648438,1.27996875 20.3394152,2.293875 21.978,5.0146875 C23.9408734,8.27353125 23.6227671,13.8822188 18.426,15.9989063 C18.1896684,16.095375 17.9617671,16.2126563 17.5753747,16.3920938 C18.0502861,16.50825 18.3526557,16.5743438 18.6505291,16.6561875 C22.7468506,17.7825938 24.9393114,21.5715938 24.3716658,25.747875 C23.7896886,30.03075 20.8865468,32.2860938 16.8368734,33.206625 C15.3902203,33.5354063 13.8766861,33.6765938 12.3901291,33.7033125 C8.61641013,33.771375 4.84072405,33.7260938 1.06588101,33.7260938 L0.235207595,33.7260938 L0.235207595,0.86934375 L0.235207595,0.86934375 Z M6.13450633,28.6090313 C6.35201013,28.6281563 6.48211899,28.6498125 6.61194684,28.64925 C8.56301772,28.6433438 10.5163367,28.6838438 12.4645975,28.605375 C13.4402734,28.5662813 14.4373063,28.4104688 15.3719544,28.130625 C17.7189722,27.4280625 18.626362,25.9388438 18.5049646,23.2245 C18.4209418,21.3516563 17.1813949,19.881 14.9287975,19.6500938 C12.0708987,19.3573125 9.17703038,19.4169375 6.29833671,19.3289063 C6.25618481,19.3275 6.21262785,19.37925 6.13450633,19.4284688 L6.13450633,28.6090313 L6.13450633,28.6090313 Z M6.13872152,14.198625 C7.97570127,14.198625 9.73455949,14.2028438 11.4936987,14.1960938 C11.9742304,14.194125 12.4623494,14.2065 12.9336076,14.13 C14.2453747,13.9165313 15.5026253,13.53825 16.3782608,12.445875 C17.7262785,10.7645625 17.6124684,7.16821875 14.0607494,6.32728125 C11.454638,5.71021875 8.81030886,6.066 6.13872152,5.97375 L6.13872152,14.198625 L6.13872152,14.198625 Z" id="Fill-1"></path>
                                    <path d="M216.395765,14.74875 L216.395765,11.49075 L221.728823,11.49075 L221.728823,12.3100312 C221.728823,18.87525 221.780529,25.4410312 221.693977,32.005125 C221.671215,33.7176562 221.393856,35.4740625 220.929342,37.1244375 C219.689233,41.5310625 216.562686,43.9340625 212.149944,44.605125 C208.928977,45.0947812 205.700423,44.9490937 202.577529,43.8435 C200.863352,43.2368437 199.057846,42.15375 198.09341,41.12325 C199.183458,39.634875 200.283623,38.133 201.418914,36.58275 C201.880056,36.9495 202.303261,37.303875 202.744451,37.634625 C205.464934,39.67425 208.500995,40.246875 211.771701,39.441375 C214.144853,38.8572187 215.6952,36.89775 215.94221,34.32375 C216.048714,33.2139375 216.08918,32.0979375 216.170111,30.8233125 C215.493152,31.4091562 214.995197,31.9221562 214.419965,32.324625 C210.782818,34.8699375 204.961359,34.50375 201.634451,31.5604687 C198.451982,28.7445937 197.334395,25.1780625 197.759005,21.034125 C198.067276,18.0227812 199.174466,15.4077187 201.502937,13.3911562 C203.660833,11.5225312 206.216643,10.8503437 209.009909,10.9189687 C211.454157,10.9791562 213.633691,11.7115312 215.367258,13.514625 C215.689299,13.849875 215.965534,14.2292812 216.395765,14.74875 L216.395765,14.74875 Z M216.33338,22.5081562 C216.354456,18.6167812 213.76099,15.9868125 209.882453,15.9662812 C206.041853,15.9463125 203.281466,18.6690937 203.259266,22.5 C203.238752,26.0071875 206.099461,28.9004062 209.607342,28.9200937 C213.676405,28.942875 216.312023,26.4301875 216.33338,22.5081562 L216.33338,22.5081562 Z" id="Fill-2"></path>
                                    <path d="M120.520147,33.6630937 C120.520147,29.386125 120.529139,25.182 120.510592,20.9775937 C120.507782,20.3144062 120.447084,19.6363125 120.297585,18.9916875 C119.953625,17.5064062 119.140094,16.394625 117.550124,16.0948125 C115.753329,15.7559062 114.122051,16.0709062 112.926342,17.586 C111.954319,18.8175937 111.698597,20.2966875 111.690448,21.8154375 C111.671058,25.4595937 111.683985,29.10375 111.683985,32.7481875 L111.683985,33.6715312 L106.065418,33.6715312 L106.065418,32.7704062 C106.065418,28.5901875 106.075815,24.4099687 106.053615,20.22975 C106.050524,19.6242187 105.967344,18.9961875 105.79143,18.4182187 C105.167863,16.3712812 103.245456,15.5112187 100.836896,16.1490937 C98.9257291,16.6553437 97.4824481,18.2491875 97.4088228,20.3205937 C97.2756228,24.0654375 97.2995089,27.8159062 97.2607291,31.5638437 C97.2534228,32.2534687 97.2596051,32.943375 97.2596051,33.6785625 L91.6933063,33.6785625 L91.6933063,11.4856875 L97.0170911,11.4856875 L97.0170911,14.5234687 C98.7169367,11.9387812 101.100767,10.8556875 104.066013,10.9054687 C107.036035,10.95525 109.442066,11.9877187 110.796547,14.9158125 C111.696068,13.5014062 112.753519,12.3575625 114.239514,11.6699062 C116.956625,10.4121562 121.694218,10.5797812 123.888646,13.09275 C125.133532,14.518125 125.891985,16.1940937 125.947906,18.0298125 C126.099653,23.0065312 126.089256,27.9880312 126.142648,32.9678437 C126.144896,33.1785 126.142929,33.3894375 126.142929,33.6630937 L120.520147,33.6630937" id="Fill-3"></path>
                                    <path d="M136.222291,14.0447813 C137.609089,12.7299375 139.076537,11.7511875 140.857876,11.2767188 C146.948544,9.65446875 152.846157,13.141125 154.221152,19.2931875 C155.101284,23.2306875 154.684261,27.0216563 152.166949,30.3409688 C150.375213,32.7029063 147.916633,33.92775 144.973587,34.2132188 C142.183694,34.4837813 139.589666,34.0396875 137.401701,32.1474375 C136.90178,31.714875 136.492906,31.1768438 135.966289,30.6050625 L135.966289,33.6763125 L130.654868,33.6763125 L130.654868,0.19603125 L136.222291,0.19603125 L136.222291,14.0447813 L136.222291,14.0447813 Z M148.960314,22.6400625 C148.960876,18.78075 146.211167,15.93225 142.479881,15.9710625 C138.767985,16.0095938 136.013218,18.6572813 136.022491,22.599 C136.032046,26.6369063 138.848354,29.19375 142.476228,29.2280625 C146.175759,29.2629375 148.959752,26.4141563 148.960314,22.6400625 L148.960314,22.6400625 Z" id="Fill-4"></path>
                                    <path d="M49.2353848,10.8953437 C55.0616203,10.8694687 59.6446557,14.0138437 61.1222203,18.9379687 C63.182043,25.8021562 59.5010582,32.9675625 51.5391266,34.1690625 C46.1296329,34.9855312 40.9671494,32.5558125 38.7235443,28.0783125 C35.4261418,21.4984687 38.4172405,12.5870625 47.2244582,11.1121875 C47.9862835,10.9845 48.7627215,10.9448437 49.2353848,10.8953437 L49.2353848,10.8953437 Z M49.5430937,29.233125 C53.2122759,29.2452187 56.0263367,26.3978437 56.0623063,22.6366875 C56.0979949,18.8772187 53.2381291,15.9553125 49.5335392,15.9662812 C45.8739114,15.9769687 43.089919,18.8049375 43.0795215,22.5210937 C43.0691241,26.3646562 45.8193949,29.2204687 49.5430937,29.233125 L49.5430937,29.233125 Z" id="Fill-5"></path>
                                    <path d="M75.8259266,34.3206562 C72.4858101,34.1634375 69.5152253,33.1155 67.2041772,30.6306562 C64.0826886,27.2747812 63.4127544,23.2695 64.647243,18.9939375 C65.846043,14.8426875 68.7851544,12.2895 72.9365544,11.3135625 C77.2852253,10.2909375 81.3427671,11.0117812 84.7607241,14.095125 C86.8969823,16.02225 87.9915266,18.4902187 88.2629848,21.3471562 C88.5757519,24.6369375 87.8128025,27.6117187 85.6658658,30.1564687 C83.4143924,32.82525 80.4474608,34.0461562 77.0205114,34.2669375 C76.6228785,34.2928125 76.2241215,34.3032187 75.8259266,34.3206562 L75.8259266,34.3206562 Z M69.7487468,22.6330312 C69.7546481,26.3995312 72.5434177,29.2370625 76.235643,29.2328437 C79.9011722,29.2289062 82.7264734,26.3475 82.7312506,22.6082812 C82.7360278,18.8724375 79.9160658,15.9834375 76.2482886,15.9662812 C72.5200937,15.949125 69.7428456,18.7979062 69.7487468,22.6330312 L69.7487468,22.6330312 Z" id="Fill-6"></path>
                                    <path d="M179.750309,24.5573437 L162.88702,24.5573437 C162.592519,25.9574062 163.820544,28.0150312 165.456038,28.9600312 C168.21783,30.556125 171.17043,29.87325 174.642061,26.8025625 C175.941744,27.7889062 177.251263,28.7825625 178.594785,29.8020937 C176.819066,32.0211562 174.662575,33.5022187 171.965977,34.0070625 C167.758656,34.7942812 163.88321,34.0500937 160.612504,31.1003437 C158.670144,29.349 157.560425,27.115875 157.188365,24.5590312 C156.712329,21.2900625 157.282223,18.2053125 159.321532,15.530625 C161.531134,12.632625 164.547805,11.210625 168.14561,10.9524375 C170.666856,10.7713125 173.057711,11.165625 175.164744,12.6565312 C177.575271,14.36175 178.818471,16.8077812 179.296473,19.6408125 C179.564559,21.2304375 179.601372,22.8591562 179.750309,24.5573437 L179.750309,24.5573437 Z M162.800187,20.3056875 L173.966787,20.3056875 C173.86759,17.0412187 171.632134,15.0342187 168.257734,15.1225312 C165.030585,15.2071875 162.928048,17.4557812 162.800187,20.3056875 L162.800187,20.3056875 Z" id="Fill-7"></path>
                                    <path d="M28.1925949,0.1935 L33.7513063,0.1935 L33.7513063,33.6718125 L28.1925949,33.6718125 L28.1925949,0.1935" id="Fill-8"></path>
                                    <path d="M188.794701,33.6906563 L183.22503,33.6906563 L183.22503,11.4845625 L188.762104,11.4845625 L188.762104,14.5054688 C189.703777,13.6456875 190.581099,12.6334688 191.654286,11.91375 C193.252967,10.841625 195.095286,10.6799063 196.965425,11.1287813 C197.159886,11.1754688 197.442866,11.437875 197.446519,11.6055 C197.48277,13.2598125 197.468438,14.9149688 197.468438,16.6393125 C196.804405,16.5211875 196.231701,16.4129063 195.65703,16.318125 C191.811934,15.68475 188.800041,18.2258438 188.795825,22.11075 C188.79161,25.938 188.794701,29.7649688 188.794701,33.6906563" id="Fill-9"></path>
                                </g>
                            </g>
                        </g>
                    </g>
                </g>
            </g>
        </g>
    </g>
</svg>

<?xml version="1.0" encoding="UTF-8" standalone="no"?>
<svg
   width="300"
   height="90"
   viewBox="0 0 300 90"
   version="1.1"
   id="svg1775"
   sodipodi:docname="bloomberg.svg"
   inkscape:version="1.1.1 (3bf5ae0d25, 2021-09-20)"
   xmlns:inkscape="http://www.inkscape.org/namespaces/inkscape"
   xmlns:sodipodi="http://sodipodi.sourceforge.net/DTD/sodipodi-0.dtd"
   xmlns="http://www.w3.org/2000/svg"
   xmlns:svg="http://www.w3.org/2000/svg"
   xmlns:rdf="http://www.w3.org/1999/02/22-rdf-syntax-ns#"
   xmlns:cc="http://creativecommons.org/ns#"
   xmlns:dc="http://purl.org/dc/elements/1.1/"
   xmlns:sketch="http://www.bohemiancoding.com/sketch/ns">
  <sodipodi:namedview
     id="namedview1777"
     pagecolor="#ffffff"
     bordercolor="#666666"
     borderopacity="1.0"
     inkscape:pageshadow="2"
     inkscape:pageopacity="0.0"
     inkscape:pagecheckerboard="0"
     showgrid="false"
     inkscape:zoom="2.8844998"
     inkscape:cx="152.88612"
     inkscape:cy="-3.2934653"
     inkscape:window-width="1866"
     inkscape:window-height="1016"
     inkscape:window-x="54"
     inkscape:window-y="27"
     inkscape:window-maximized="1"
     inkscape:current-layer="svg1775" />
  <!-- Generator: Sketch 3.3.3 (12072) - http://www.bohemiancoding.com/sketch -->
  <title
     id="title1751">Imported Layers</title>
  <desc
     id="desc1753">Created with Sketch.</desc>
  <defs
     id="defs1755" />
  <g
     id="Page-1"
     stroke="none"
     stroke-width="1"
     fill="none"
     fill-rule="evenodd"
     sketch:type="MSPage"
     transform="matrix(1.3434171,0,0,1.3434171,0.89456902,14.729195)">
    <g
       id="Home---Desktop-Copy-2"
       sketch:type="MSArtboardGroup"
       transform="translate(-692,-1907)"
       fill="#b1b1b1">
      <g
         id="Group-+-Currently-in-use-at"
         sketch:type="MSLayerGroup"
         transform="translate(131,1814)">
        <g
           id="Group"
           sketch:type="MSShapeGroup">
          <g
             transform="translate(25)"
             id="Row-3-+-Row-1-+-Row-2">
            <g
               transform="translate(0,93)"
               id="g1768">
              <g
                 id="Row-1"
                 transform="translate(15)">
                <g
                   id="Imported-Layers"
                   transform="translate(521)">
                  <path
                     d="m 0.23520759,0.86934375 c 2.61594681,0 5.15658231,-0.0174375 7.69693671,0.005063 2.2461337,0.0199687 4.5015417,-0.0300938 6.7358737,0.15665625 2.98042,0.2489063 5.671397,1.2628125 7.309982,3.983625 1.962873,3.2588438 1.644767,8.867532 -3.552,10.984219 -0.236332,0.09647 -0.464233,0.21375 -0.850625,0.393187 0.474911,0.116156 0.777281,0.18225 1.075154,0.264094 4.096322,1.126406 6.288782,4.915406 5.721137,9.091687 -0.581977,4.282875 -3.485119,6.538219 -7.534793,7.45875 -1.446653,0.328781 -2.960187,0.469969 -4.446744,0.496688 -3.7737189,0.06806 -7.5494049,0.02278 -11.324248,0.02278 H 0.23520759 Z M 6.1345063,28.609031 c 0.2175038,0.01912 0.3476127,0.04078 0.4774405,0.04022 1.9510709,-0.0059 3.9043902,0.03459 5.8526512,-0.04387 0.975675,-0.03909 1.972708,-0.194906 2.907356,-0.47475 2.347018,-0.702563 3.254408,-2.191781 3.133011,-4.906125 -0.08402,-1.872844 -1.32357,-3.3435 -3.576167,-3.574406 -2.857899,-0.292782 -5.7517676,-0.233157 -8.6304613,-0.321188 -0.042152,-0.0014 -0.085709,0.05034 -0.1638304,0.09956 v 9.180562 z m 0.00422,-14.410406 c 1.8369798,0 3.595838,0.0042 5.3549777,-0.0025 0.480531,-0.002 0.96865,0.01041 1.439909,-0.06609 1.311767,-0.213469 2.569017,-0.59175 3.444653,-1.684125 C 17.726278,10.764563 17.612468,7.1682188 14.060749,6.3272813 11.454638,5.7102187 8.8103089,6.066 6.1387215,5.97375 v 8.224875 z"
                     id="Fill-1" />
                  <path
                     d="m 216.39576,14.74875 v -3.258 h 5.33306 v 0.819281 c 0,6.565219 0.0517,13.131 -0.0348,19.695094 -0.0228,1.712531 -0.30012,3.468938 -0.76464,5.119312 -1.24011,4.406625 -4.36665,6.809626 -8.7794,7.480688 -3.22096,0.489656 -6.44952,0.343969 -9.57241,-0.761625 -1.71418,-0.606656 -3.51968,-1.68975 -4.48412,-2.72025 1.09005,-1.488375 2.19021,-2.99025 3.3255,-4.5405 0.46115,0.36675 0.88435,0.721125 1.32554,1.051875 2.72048,2.039625 5.75654,2.61225 9.02725,1.80675 2.37315,-0.584156 3.9235,-2.543625 4.17051,-5.117625 0.1065,-1.109813 0.14697,-2.225813 0.2279,-3.500438 -0.67696,0.585844 -1.17491,1.098844 -1.75015,1.501313 -3.63714,2.545312 -9.4586,2.179125 -12.78551,-0.764156 -3.18247,-2.815875 -4.30006,-6.382407 -3.87545,-10.526344 0.30828,-3.011344 1.41547,-5.626406 3.74394,-7.642969 2.15789,-1.868625 4.7137,-2.540812 7.50697,-2.472187 2.44425,0.06019 4.62378,0.792562 6.35735,2.595656 0.32204,0.33525 0.59827,0.714656 1.0285,1.234125 z m -0.0624,7.759406 c 0.0211,-3.891375 -2.57239,-6.521344 -6.45093,-6.541875 -3.8406,-0.01997 -6.60098,2.702813 -6.62318,6.533719 -0.0205,3.507187 2.84019,6.400406 6.34807,6.420094 4.06906,0.02278 6.70468,-2.489907 6.72604,-6.411938 z"
                     id="Fill-2" />
                  <path
                     d="m 120.52015,33.663094 c 0,-4.276969 0.009,-8.481094 -0.01,-12.6855 -0.003,-0.663188 -0.0635,-1.341282 -0.21301,-1.985907 -0.34395,-1.485281 -1.15749,-2.597062 -2.74746,-2.896875 -1.79679,-0.338906 -3.42807,-0.02391 -4.62378,1.491188 -0.97202,1.231594 -1.22774,2.710687 -1.23589,4.229438 -0.0194,3.644156 -0.006,7.288312 -0.006,10.932749 v 0.923344 h -5.61857 v -0.901125 c 0,-4.180219 0.0104,-8.360437 -0.0118,-12.540656 -0.003,-0.605531 -0.0863,-1.233562 -0.26218,-1.811531 -0.62357,-2.046938 -2.54597,-2.907 -4.95453,-2.269125 -1.911171,0.50625 -3.354452,2.100094 -3.428077,4.1715 -0.1332,3.744844 -0.109314,7.495312 -0.148094,11.24325 -0.0073,0.689625 -0.0011,1.379531 -0.0011,2.114718 H 91.693306 V 11.485687 h 5.323785 v 3.037782 c 1.699846,-2.584688 4.083679,-3.667781 7.048919,-3.618 2.97002,0.04978 5.37606,1.08225 6.73054,4.010343 0.89952,-1.414406 1.95697,-2.558249 3.44296,-3.245906 2.71712,-1.25775 7.45471,-1.090125 9.64914,1.422844 1.24488,1.425375 2.00334,3.101344 2.05926,4.937062 0.15174,4.976719 0.14135,9.958219 0.19474,14.938032 0.002,0.210656 2.8e-4,0.421593 2.8e-4,0.69525 h -5.62278"
                     id="Fill-3" />
                  <path
                     d="m 136.22229,14.044781 c 1.3868,-1.314843 2.85425,-2.293593 4.63559,-2.768062 6.09066,-1.6222502 11.98828,1.864406 13.36327,8.016468 0.88013,3.9375 0.46311,7.728469 -2.0542,11.047782 -1.79174,2.361937 -4.25032,3.586781 -7.19336,3.87225 -2.7899,0.270562 -5.38392,-0.173532 -7.57189,-2.065781 -0.49992,-0.432563 -0.90879,-0.970594 -1.43541,-1.542376 v 3.071251 h -5.31142 V 0.19603125 h 5.56742 z m 12.73802,8.595281 c 5.7e-4,-3.859312 -2.74914,-6.707812 -6.48043,-6.668999 -3.7119,0.03853 -6.46666,2.686218 -6.45739,6.627937 0.01,4.037906 2.82586,6.59475 6.45374,6.629062 3.69953,0.03487 6.48352,-2.813906 6.48408,-6.588 z"
                     id="Fill-4" />
                  <path
                     d="m 49.235385,10.895344 c 5.826235,-0.02587 10.409271,3.1185 11.886835,8.042625 2.059823,6.864187 -1.621162,14.029593 -9.583093,15.231094 -5.409494,0.816468 -10.571978,-1.61325 -12.815583,-6.090751 -3.297402,-6.579843 -0.306304,-15.491249 8.500914,-16.966125 0.761825,-0.127687 1.538263,-0.167343 2.010927,-0.216843 z m 0.307709,18.337781 c 3.669182,0.01209 6.483243,-2.835281 6.519212,-6.596438 0.03569,-3.759468 -2.824177,-6.681374 -6.528767,-6.670406 -3.659628,0.01069 -6.44362,2.838656 -6.454018,6.554813 -0.0104,3.843562 2.739874,6.699375 6.463573,6.712031 z"
                     id="Fill-5" />
                  <path
                     d="m 75.825927,34.320656 c -3.340117,-0.157219 -6.310702,-1.205156 -8.62175,-3.69 -3.121488,-3.355875 -3.791423,-7.361156 -2.556934,-11.636719 1.1988,-4.151249 4.137911,-6.704437 8.289311,-7.680374 4.348671,-1.022625 8.406213,-0.301782 11.82417,2.781562 2.136258,1.927125 3.230803,4.395094 3.502261,7.252031 0.312767,3.289781 -0.450182,6.264563 -2.597119,8.809313 -2.251474,2.668781 -5.218405,3.889687 -8.645355,4.110468 -0.397633,0.02587 -0.79639,0.03628 -1.194584,0.05372 z m -6.07718,-11.687625 c 0.0059,3.7665 2.794671,6.604031 6.486896,6.599813 3.665529,-0.0039 6.49083,-2.885344 6.495608,-6.624563 0.0048,-3.735844 -2.815185,-6.624843 -6.482962,-6.642 -3.728195,-0.01716 -6.505443,2.831625 -6.499542,6.66675 z"
                     id="Fill-6" />
                  <path
                     d="m 179.75031,24.557344 h -16.86329 c -0.2945,1.400062 0.93352,3.457687 2.56902,4.402687 2.76179,1.596094 5.71439,0.913219 9.18602,-2.157469 1.29968,0.986344 2.6092,1.98 3.95272,2.999532 -1.77571,2.219062 -3.93221,3.700125 -6.6288,4.204969 -4.20732,0.787218 -8.08277,0.04303 -11.35348,-2.906719 -1.94236,-1.751344 -3.05208,-3.984469 -3.42414,-6.541313 -0.47603,-3.268969 0.0939,-6.353718 2.13317,-9.028406 2.2096,-2.898 5.22627,-4.32 8.82408,-4.578187 2.52125,-0.181125 4.9121,0.213187 7.01913,1.704093 2.41053,1.705219 3.65373,4.15125 4.13173,6.984281 0.26809,1.589625 0.3049,3.218344 0.45384,4.916532 z m -16.95012,-4.251657 h 11.1666 c -0.0992,-3.264468 -2.33466,-5.271468 -5.70906,-5.183156 -3.22715,0.08466 -5.32968,2.33325 -5.45754,5.183156 z"
                     id="Fill-7" />
                  <path
                     d="m 28.192595,0.1935 h 5.558711 V 33.671813 H 28.192595 V 0.1935"
                     id="Fill-8" />
                  <path
                     d="m 188.7947,33.690656 h -5.56967 V 11.484562 h 5.53707 v 3.020907 c 0.94168,-0.859782 1.819,-1.872 2.89219,-2.591719 1.59868,-1.072125 3.441,-1.233844 5.31113,-0.784969 0.19447,0.04669 0.47745,0.309094 0.4811,0.476719 0.0362,1.654313 0.0219,3.309469 0.0219,5.033812 -0.66404,-0.118125 -1.23674,-0.226406 -1.81141,-0.321187 -3.8451,-0.633375 -6.85699,1.907719 -6.86121,5.792625 -0.004,3.82725 -0.001,7.654219 -0.001,11.579906"
                     id="Fill-9" />
                </g>
              </g>
            </g>
          </g>
        </g>
      </g>
    </g>
  </g>
  <metadata
     id="metadata1859">
    <rdf:RDF>
      <cc:Work
         rdf:about="">
        <dc:title>Imported Layers</dc:title>
      </cc:Work>
    </rdf:RDF>
  </metadata>
</svg>
